public/icons/language__icon.svg

<svg width="30" height="30" viewBox="0 0 31 30" fill="none" xmlns="http://www.w3.org/2000/svg">
    <path
        d="M15.0953 22C15.8093 22 17.0703 19.745 17.2663 16H12.9243C13.1203 19.745 14.3813 22 15.0953 22ZM8.17529 14H10.9213C10.9763 12.1938 11.3426 10.4106 12.0043 8.729C10.987 9.23198 10.1071 9.97445 9.44015 10.8926C8.77319 11.8107 8.33913 12.8771 8.17529 14Z"
        fill="white" />
    <path
        d="M15.0952 0C12.1285 0 9.2284 0.879735 6.76167 2.52796C4.29493 4.17618 2.37234 6.51886 1.23703 9.25975C0.101714 12.0006 -0.195336 15.0166 0.383442 17.9264C0.962221 20.8361 2.39083 23.5088 4.48862 25.6066C6.58641 27.7044 9.25915 29.133 12.1689 29.7118C15.0786 30.2906 18.0946 29.9935 20.8355 28.8582C23.5764 27.7229 25.919 25.8003 27.5673 23.3336C29.2155 20.8668 30.0952 17.9667 30.0952 15C30.0907 11.0231 28.5089 7.21044 25.6969 4.39837C22.8848 1.5863 19.0721 0.00449947 15.0952 0ZM15.0952 24C13.3152 24 11.5751 23.4722 10.0951 22.4832C8.61505 21.4943 7.46149 20.0887 6.78031 18.4442C6.09912 16.7996 5.92089 14.99 6.26815 13.2442C6.61542 11.4984 7.47259 9.89471 8.73126 8.63604C9.98993 7.37737 11.5936 6.5202 13.3394 6.17293C15.0852 5.82567 16.8948 6.0039 18.5394 6.68508C20.1839 7.36627 21.5895 8.51982 22.5784 9.99987C23.5674 11.4799 24.0952 13.22 24.0952 15C24.0926 17.3861 23.1435 19.6738 21.4563 21.361C19.769 23.0483 17.4814 23.9974 15.0952 24Z"
        fill="white" />
    <path
        d="M15.0953 8C14.3813 8 13.1203 10.255 12.9243 14H17.2663C17.0703 10.255 15.8093 8 15.0953 8ZM8.17529 16C8.33913 17.1229 8.77319 18.1893 9.44015 19.1074C10.1071 20.0256 10.987 20.768 12.0043 21.271C11.3426 19.5894 10.9763 17.8062 10.9213 16H8.17529ZM18.1863 8.729C18.8479 10.4106 19.2143 12.1938 19.2693 14H22.0153C21.8514 12.8771 21.4174 11.8107 20.7504 10.8926C20.0835 9.97444 19.2036 9.23198 18.1863 8.729ZM18.1863 21.271C19.2036 20.768 20.0835 20.0256 20.7504 19.1074C21.4174 18.1893 21.8514 17.1229 22.0153 16H19.2693C19.2143 17.8062 18.8479 19.5894 18.1863 21.271Z"
        fill="white" />
</svg>

<svg xmlns="http://www.w3.org/2000/svg" width="30" height="30" fill="none" viewBox="0 0 31 30"><path fill="#fff" d="M15.095 22c.714 0 1.975-2.255 2.171-6h-4.342c.196 3.745 1.457 6 2.171 6Zm-6.92-8h2.746a15.7 15.7 0 0 1 1.083-5.271A7.009 7.009 0 0 0 8.175 14Z"/><path fill="#fff" d="M15.095 0a15 15 0 1 0 15 15 15.017 15.017 0 0 0-15-15Zm0 24a9 9 0 1 1 9-9 9.01 9.01 0 0 1-9 9Z"/><path fill="#fff" d="M15.095 8c-.714 0-1.975 2.255-2.17 6h4.341c-.196-3.745-1.457-6-2.17-6Zm-6.92 8a7.009 7.009 0 0 0 3.83 5.271A15.7 15.7 0 0 1 10.92 16H8.175Zm10.011-7.271A15.703 15.703 0 0 1 19.27 14h2.746a7.01 7.01 0 0 0-3.829-5.271Zm0 12.542A7.008 7.008 0 0 0 22.016 16h-2.747a15.703 15.703 0 0 1-1.083 5.271Z"/></svg>
